src/assets/icons/moon_icon_hand_drawn-min.svg

<svg width="26" height="28" viewBox="0 0 26 28" fill="none" xmlns="http://www.w3.org/2000/svg">
<path fill-rule="evenodd" clip-rule="evenodd" d="M12.293 0.492938C11.4916 0.568243 10.21 0.844469 9.39456 1.11774C7.97077 1.59484 6.2847 2.52797 5.08846 3.5008C4.17956 4.24002 3.1324 5.38287 2.44115 6.39016C0.320314 9.48066 -0.459147 13.1839 0.2624 16.7415C0.704713 18.9224 1.78167 21.1602 3.20278 22.8511C3.71247 23.4576 4.71845 24.4479 5.26582 24.882C7.66162 26.7821 10.9259 27.8933 14.125 27.8978C18.1326 27.9034 22.0014 26.387 24.6833 23.7592C25.4779 22.9807 25.6349 22.6676 25.4514 22.2283C25.3553 21.9982 24.8393 21.5977 24.3158 21.3468C23.79 21.0948 23.5417 21.0977 22.4335 21.3688C21.0919 21.697 20.845 21.7296 19.7032 21.7293C18.5526 21.7291 17.9417 21.6386 16.9414 21.3203C16.2045 21.0858 14.877 20.4086 14.2891 19.9673C12.9667 18.9746 11.8219 17.488 11.2458 16.0157C10.7533 14.7567 10.5655 13.6457 10.6139 12.2769C10.6604 10.9625 10.9184 9.95305 11.5244 8.71438C12.3478 7.03137 13.8653 5.50007 15.5477 4.65427C16.1056 4.37373 16.8776 4.11369 17.7891 3.89915C18.6583 3.69462 18.6658 3.69155 18.9239 3.43622C19.1514 3.21112 19.1836 3.15086 19.1836 2.95048C19.1836 2.58998 19.0109 2.33547 18.3792 1.76508C17.7351 1.18342 17.5733 1.09581 16.7657 0.891118C15.1172 0.473251 13.7745 0.353704 12.293 0.492938ZM12.1563 2.2658C10.3827 2.53967 8.28161 3.62062 6.8179 5.01231C3.6685 8.00689 2.70108 12.8245 4.25535 17.7735C4.50303 18.5621 4.52403 18.7955 4.36079 18.9432C4.20805 19.0814 3.89737 19.0667 3.73429 18.9135C3.37139 18.5726 2.86421 16.7038 2.63392 14.8588C2.52531 13.9889 2.51334 12.4354 2.60953 11.6948C2.91409 9.34947 3.79319 7.37891 5.23213 5.81594C5.34287 5.69563 5.54341 5.47453 5.67772 5.32463L5.9219 5.05207L5.58065 5.34323C5.14676 5.71346 4.60683 6.29621 4.23627 6.79425C2.81149 8.70919 1.84768 11.5076 1.84768 13.7296C1.84768 14.3931 1.85184 14.4168 2.01005 14.6556C2.14239 14.8555 2.20862 15.0823 2.36787 15.8818C2.68478 17.4731 3.03358 18.5468 3.58177 19.6184C3.90853 20.257 4.65971 21.4205 4.77363 21.4642C4.81333 21.4794 4.94611 21.4255 5.06872 21.3443C5.26259 21.216 5.3321 21.2002 5.60171 21.2225C5.88679 21.2462 5.92972 21.2682 6.13557 21.4964C6.25867 21.6329 6.54397 22.036 6.76956 22.3923C7.06695 22.862 7.33005 23.191 7.72659 23.589C8.02737 23.891 8.34018 24.172 8.42172 24.2136C8.55828 24.2832 8.58546 24.2774 8.76571 24.1399C9.23854 23.7793 9.52357 23.8207 10.3378 24.3682C11.4084 25.0883 12.2496 25.4229 13.4698 25.6142C14.1936 25.7278 15.8825 25.7018 16.7397 25.564C17.4036 25.4573 18.464 25.2222 18.8254 25.1016C19.071 25.0196 19.1112 24.9814 19.2591 24.6893C19.4521 24.308 19.7141 24.1186 20.622 23.7043C20.9449 23.557 21.2008 23.4282 21.1908 23.4182C21.1808 23.4081 20.9527 23.4389 20.684 23.4865C19.9326 23.6196 18.3397 23.5637 17.4336 23.3723C15.3389 22.93 13.4518 21.9211 11.9725 20.4526C10.5932 19.0833 9.5765 17.3131 9.06693 15.3936C8.79475 14.3681 8.71884 13.7875 8.71583 12.7066C8.71091 10.9427 9.06419 9.42794 9.86405 7.78382C10.3895 6.70358 11.457 5.27131 12.2788 4.54391C12.7042 4.16728 13.4293 3.63758 13.7285 3.48484C13.9259 3.3841 13.9336 3.36934 13.9342 3.09415C13.9345 2.90788 13.9805 2.70975 14.066 2.52611L14.1973 2.24414L14.0791 2.21242C13.8648 2.15489 12.6574 2.18841 12.1563 2.2658ZM10.4527 3.11805C10.3463 3.15403 10.0645 3.40729 9.71694 3.77916C9.40714 4.11073 8.82023 4.67626 8.41275 5.03588C8.00528 5.39551 7.6042 5.76645 7.52151 5.86013C7.3382 6.06783 7.31611 6.35686 7.47689 6.44294C7.71385 6.56976 7.84504 6.50358 8.7347 5.80867C9.22114 5.42876 9.99278 4.86887 10.4495 4.56453C11.1314 4.11019 11.3031 3.96887 11.4102 3.77419C11.5167 3.58076 11.5298 3.51333 11.4817 3.40767C11.3655 3.15255 10.8116 2.9967 10.4527 3.11805ZM5.87285 8.3296C5.46499 8.73746 4.84833 10.2544 4.58277 11.5034C4.44014 12.1739 4.376 13.5895 4.46639 14.0703C4.50227 14.2611 4.57643 14.447 4.64632 14.5214C4.78921 14.6735 5.05013 14.687 5.21873 14.5511C5.46411 14.3531 5.49939 14.2099 5.84064 12.023C5.9837 11.1062 6.23247 9.99839 6.47518 9.19733C6.69059 8.48612 6.69775 8.39648 6.55081 8.24954C6.37335 8.07208 6.09783 8.10462 5.87285 8.3296Z"/>
</svg>

<svg width="28" height="28" fill="none" xmlns="http://www.w3.org/2000/svg"><path fill-rule="evenodd" clip-rule="evenodd" d="M12.293.493c-.801.075-2.083.351-2.898.625-1.424.477-3.11 1.41-4.307 2.383-.908.739-1.956 1.882-2.647 2.89-2.12 3.09-2.9 6.793-2.179 10.35.443 2.181 1.52 4.42 2.94 6.11.51.607 1.516 1.597 2.064 2.031 2.396 1.9 5.66 3.011 8.859 3.016 4.008.005 7.876-1.511 10.558-4.139.795-.778.952-1.091.768-1.53-.096-.23-.612-.631-1.135-.882-.526-.252-.774-.25-1.883.022-1.341.328-1.588.36-2.73.36-1.15 0-1.761-.09-2.762-.409-.736-.234-2.064-.911-2.652-1.353-1.322-.992-2.467-2.479-3.043-3.951-.493-1.26-.68-2.37-.632-3.74.046-1.313.304-2.323.91-3.562.824-1.683 2.341-3.214 4.024-4.06.558-.28 1.33-.54 2.241-.755.87-.204.877-.207 1.135-.463.227-.225.26-.285.26-.486 0-.36-.173-.615-.805-1.185-.644-.582-.806-.67-1.613-.874-1.649-.418-2.991-.537-4.473-.398zm-.137 1.773c-1.773.274-3.874 1.355-5.338 2.746-3.15 2.995-4.117 7.813-2.563 12.761.248.79.269 1.023.106 1.17-.153.138-.464.124-.627-.03-.363-.34-.87-2.21-1.1-4.054-.109-.87-.12-2.424-.024-3.164.304-2.346 1.183-4.316 2.622-5.88.11-.12.311-.34.446-.49l.244-.273-.341.291c-.434.37-.974.953-1.345 1.451-1.425 1.915-2.388 4.714-2.388 6.936 0 .663.004.687.162.926.132.2.199.426.358 1.226.317 1.591.666 2.665 1.214 3.736.327.639 1.078 1.803 1.192 1.846.04.015.172-.038.295-.12.194-.128.263-.144.533-.122.285.024.328.046.534.274.123.137.408.54.634.896.297.47.56.799.957 1.197.3.302.613.583.695.625.136.07.163.063.344-.074.473-.36.758-.32 1.572.228 1.07.72 1.912 1.055 3.132 1.246.724.114 2.412.088 3.27-.05.664-.107 1.724-.342 2.085-.462.246-.082.286-.12.434-.413.193-.381.455-.57 1.363-.985.323-.147.579-.276.569-.286-.01-.01-.238.02-.507.069-.751.133-2.344.077-3.25-.115-2.095-.442-3.982-1.45-5.462-2.92a11.226 11.226 0 0 1-2.905-5.058c-.272-1.026-.348-1.607-.351-2.687-.005-1.764.348-3.28 1.148-4.923.525-1.08 1.593-2.513 2.415-3.24.425-.377 1.15-.906 1.45-1.06.197-.1.205-.115.205-.39 0-.186.046-.384.132-.568l.131-.282-.118-.032c-.214-.057-1.422-.024-1.923.054zm-1.703.852c-.107.036-.388.29-.736.661-.31.332-.897.897-1.304 1.257-.408.36-.809.73-.891.824-.184.208-.206.497-.045.583.237.127.368.06 1.258-.634.486-.38 1.258-.94 1.715-1.244.681-.455.853-.596.96-.79.107-.194.12-.262.072-.367-.116-.255-.67-.411-1.03-.29zM5.873 8.33c-.408.407-1.025 1.924-1.29 3.173-.143.67-.207 2.086-.117 2.567.036.191.11.377.18.451a.433.433 0 0 0 .573.03c.245-.198.28-.341.622-2.528.143-.917.391-2.025.634-2.826.216-.71.223-.8.076-.947-.178-.178-.453-.145-.678.08z" fill="#0C0C0C"/></svg>
